resources/svg/major-checklist-alternate.svg

<svg xmlns="http://www.w3.org/2000/svg" viewBox="0 0 20 20" fill="currentColor"><path fill-rule="evenodd" d="M8 2a2 2 0 1 1 4 0h3.5a1.5 1.5 0 0 1 1.5 1.5v15a1.5 1.5 0 0 1-1.5 1.5h-11a1.5 1.5 0 0 1-1.5-1.5v-15a1.5 1.5 0 0 1 1.5-1.5h3.5zm-1 9a1 1 0 1 1-2 0 1 1 0 0 1 2 0zm-1 5a1 1 0 1 0 0-2 1 1 0 0 0 0 2zm8-10.5a1.5 1.5 0 0 0-1.5-1.5h-5a1.5 1.5 0 0 0-1.5 1.5v.5h8v-.5zm-5 6.5h6v-2h-6v2zm0 2h6v2h-6v-2z"/></svg>

<svg xmlns="http://www.w3.org/2000/svg" viewBox="0 0 20 20" fill="currentColor"><path fill-rule="evenodd" d="M8 2a2 2 0 114 0h3.5A1.5 1.5 0 0117 3.5v15a1.5 1.5 0 01-1.5 1.5h-11A1.5 1.5 0 013 18.5v-15A1.5 1.5 0 014.5 2H8zm-1 9a1 1 0 11-2 0 1 1 0 012 0zm-1 5a1 1 0 100-2 1 1 0 000 2zm8-10.5A1.5 1.5 0 0012.5 4h-5A1.5 1.5 0 006 5.5V6h8v-.5zM9 12h6v-2H9v2zm0 2h6v2H9v-2z" fill="#5C5F62"/></svg>
